images/171948.svg

<?xml version="1.0" encoding="UTF-8"?>
<svg xmlns="http://www.w3.org/2000/svg" xmlns:xlink="http://www.w3.org/1999/xlink" width="300pt" height="300pt" viewBox="0 0 300 300" version="1.1">
<defs>
<g>
<symbol overflow="visible" id="glyph0-0">
<path style="stroke:none;" d="M 0.546875 1.9375 L 0.546875 -7.75 L 6.046875 -7.75 L 6.046875 1.9375 Z M 1.171875 1.328125 L 5.4375 1.328125 L 5.4375 -7.140625 L 1.171875 -7.140625 Z M 1.171875 1.328125 "/>
</symbol>
<symbol overflow="visible" id="glyph0-1">
<path style="stroke:none;" d="M 4.328125 -7.28125 C 3.546875 -7.28125 2.921875 -6.984375 2.453125 -6.390625 C 1.992188 -5.804688 1.765625 -5.007812 1.765625 -4 C 1.765625 -2.988281 1.992188 -2.1875 2.453125 -1.59375 C 2.921875 -1.007812 3.546875 -0.71875 4.328125 -0.71875 C 5.117188 -0.71875 5.742188 -1.007812 6.203125 -1.59375 C 6.660156 -2.1875 6.890625 -2.988281 6.890625 -4 C 6.890625 -5.007812 6.660156 -5.804688 6.203125 -6.390625 C 5.742188 -6.984375 5.117188 -7.28125 4.328125 -7.28125 Z M 4.328125 -8.171875 C 5.453125 -8.171875 6.351562 -7.789062 7.03125 -7.03125 C 7.707031 -6.28125 8.046875 -5.269531 8.046875 -4 C 8.046875 -2.738281 7.707031 -1.726562 7.03125 -0.96875 C 6.351562 -0.21875 5.453125 0.15625 4.328125 0.15625 C 3.203125 0.15625 2.300781 -0.21875 1.625 -0.96875 C 0.957031 -1.71875 0.625 -2.726562 0.625 -4 C 0.625 -5.269531 0.957031 -6.28125 1.625 -7.03125 C 2.300781 -7.789062 3.203125 -8.171875 4.328125 -8.171875 Z M 4.328125 -8.171875 "/>
</symbol>
<symbol overflow="visible" id="glyph0-2">
<path style="stroke:none;" d="M 1.078125 -8.015625 L 2.171875 -8.015625 L 2.171875 -4.734375 L 6.109375 -4.734375 L 6.109375 -8.015625 L 7.1875 -8.015625 L 7.1875 0 L 6.109375 0 L 6.109375 -3.8125 L 2.171875 -3.8125 L 2.171875 0 L 1.078125 0 Z M 1.078125 -8.015625 "/>
</symbol>
</g>
</defs>
<g id="surface23017">
<rect x="0" y="0" width="300" height="300" style="fill:rgb(100%,100%,100%);fill-opacity:1;stroke:none;"/>
<path style="fill:none;stroke-width:1.2;stroke-linecap:butt;stroke-linejoin:miter;stroke:rgb(100%,0%,0%);stroke-opacity:1;stroke-miterlimit:10;" d="M 123.757812 167.289062 L 109.65625 166.160156 "/>
<path style="fill:none;stroke-width:1.2;stroke-linecap:butt;stroke-linejoin:miter;stroke:rgb(0%,0%,0%);stroke-opacity:1;stroke-miterlimit:10;" d="M 109.65625 166.160156 L 95.558594 165.03125 "/>
<path style="fill:none;stroke-width:1.2;stroke-linecap:butt;stroke-linejoin:miter;stroke:rgb(0%,0%,0%);stroke-opacity:1;stroke-miterlimit:10;" d="M 139.808594 143.996094 L 131.78125 155.644531 "/>
<path style="fill:none;stroke-width:1.2;stroke-linecap:butt;stroke-linejoin:miter;stroke:rgb(100%,0%,0%);stroke-opacity:1;stroke-miterlimit:10;" d="M 131.78125 155.644531 L 123.757812 167.289062 "/>
<path style=" stroke:none;fill-rule:nonzero;fill:rgb(100%,100%,100%);fill-opacity:1;" d="M 119.757812 160.789062 L 128.757812 160.789062 L 128.757812 173.789062 L 119.757812 173.789062 Z M 119.757812 160.789062 "/>
<g style="fill:rgb(100%,0%,0%);fill-opacity:1;">
  <use xlink:href="#glyph0-1" x="119.757812" y="170.69043"/>
</g>
<path style="fill:none;stroke-width:1.2;stroke-linecap:butt;stroke-linejoin:miter;stroke:rgb(0%,0%,0%);stroke-opacity:1;stroke-miterlimit:10;" d="M 95.558594 165.03125 L 83.414062 139.484375 "/>
<path style="fill:none;stroke-width:1.2;stroke-linecap:butt;stroke-linejoin:miter;stroke:rgb(0%,0%,0%);stroke-opacity:1;stroke-miterlimit:10;" d="M 88.332031 165.335938 L 78.617188 144.894531 "/>
<path style="fill:none;stroke-width:1.2;stroke-linecap:butt;stroke-linejoin:miter;stroke:rgb(0%,0%,0%);stroke-opacity:1;stroke-miterlimit:10;" d="M 79.503906 188.324219 L 95.558594 165.03125 "/>
<path style="fill:none;stroke-width:1.2;stroke-linecap:butt;stroke-linejoin:miter;stroke:rgb(0%,0%,0%);stroke-opacity:1;stroke-miterlimit:10;" d="M 83.414062 139.484375 L 99.464844 116.191406 "/>
<path style="fill:none;stroke-width:1.2;stroke-linecap:butt;stroke-linejoin:miter;stroke:rgb(0%,0%,0%);stroke-opacity:1;stroke-miterlimit:10;" d="M 83.414062 139.484375 L 55.214844 137.226562 "/>
<path style="fill:none;stroke-width:1.2;stroke-linecap:butt;stroke-linejoin:miter;stroke:rgb(0%,0%,0%);stroke-opacity:1;stroke-miterlimit:10;" d="M 102.472656 114.761719 L 96.398438 101.988281 "/>
<path style="fill:none;stroke-width:1.2;stroke-linecap:butt;stroke-linejoin:miter;stroke:rgb(100%,0%,0%);stroke-opacity:1;stroke-miterlimit:10;" d="M 96.398438 101.988281 L 90.328125 89.210938 "/>
<path style="fill:none;stroke-width:1.2;stroke-linecap:butt;stroke-linejoin:miter;stroke:rgb(0%,0%,0%);stroke-opacity:1;stroke-miterlimit:10;" d="M 96.460938 117.617188 L 90.386719 104.84375 "/>
<path style="fill:none;stroke-width:1.2;stroke-linecap:butt;stroke-linejoin:miter;stroke:rgb(100%,0%,0%);stroke-opacity:1;stroke-miterlimit:10;" d="M 90.386719 104.84375 L 84.316406 92.070312 "/>
<path style="fill:none;stroke-width:1.2;stroke-linecap:butt;stroke-linejoin:miter;stroke:rgb(0%,0%,0%);stroke-opacity:1;stroke-miterlimit:10;" d="M 99.464844 116.191406 L 127.664062 118.449219 "/>
<path style=" stroke:none;fill-rule:nonzero;fill:rgb(100%,100%,100%);fill-opacity:1;" d="M 78.320312 84.140625 L 87.320312 84.140625 L 87.320312 97.140625 L 78.320312 97.140625 Z M 78.320312 84.140625 "/>
<g style="fill:rgb(100%,0%,0%);fill-opacity:1;">
  <use xlink:href="#glyph0-1" x="78.320312" y="94.041992"/>
</g>
<path style="fill:none;stroke-width:1.2;stroke-linecap:butt;stroke-linejoin:miter;stroke:rgb(0%,0%,0%);stroke-opacity:1;stroke-miterlimit:10;" d="M 127.664062 118.449219 L 139.808594 143.996094 "/>
<path style="fill:none;stroke-width:1.2;stroke-linecap:butt;stroke-linejoin:miter;stroke:rgb(0%,0%,0%);stroke-opacity:1;stroke-miterlimit:10;" d="M 122.867188 123.859375 L 132.585938 144.300781 "/>
<path style="fill:none;stroke-width:1.2;stroke-linecap:butt;stroke-linejoin:miter;stroke:rgb(0%,0%,0%);stroke-opacity:1;stroke-miterlimit:10;" d="M 139.808594 143.996094 L 168.007812 146.253906 "/>
<path style="fill:none;stroke-width:1.2;stroke-linecap:butt;stroke-linejoin:miter;stroke:rgb(0%,0%,0%);stroke-opacity:1;stroke-miterlimit:10;" d="M 168.007812 146.253906 L 180.152344 171.804688 "/>
<path style="fill:none;stroke-width:1.2;stroke-linecap:butt;stroke-linejoin:miter;stroke:rgb(0%,0%,0%);stroke-opacity:1;stroke-miterlimit:10;" d="M 175.234375 145.953125 L 184.949219 166.390625 "/>
<path style="fill:none;stroke-width:1.2;stroke-linecap:butt;stroke-linejoin:miter;stroke:rgb(0%,0%,0%);stroke-opacity:1;stroke-miterlimit:10;" d="M 184.0625 122.960938 L 168.007812 146.253906 "/>
<path style="fill:none;stroke-width:1.2;stroke-linecap:butt;stroke-linejoin:miter;stroke:rgb(0%,0%,0%);stroke-opacity:1;stroke-miterlimit:10;" d="M 180.152344 171.804688 L 208.351562 174.058594 "/>
<path style="fill:none;stroke-width:1.2;stroke-linecap:butt;stroke-linejoin:miter;stroke:rgb(0%,0%,0%);stroke-opacity:1;stroke-miterlimit:10;" d="M 208.351562 174.058594 L 224.40625 150.769531 "/>
<path style="fill:none;stroke-width:1.2;stroke-linecap:butt;stroke-linejoin:miter;stroke:rgb(0%,0%,0%);stroke-opacity:1;stroke-miterlimit:10;" d="M 204.476562 167.953125 L 217.320312 149.320312 "/>
<path style="fill:none;stroke-width:1.2;stroke-linecap:butt;stroke-linejoin:miter;stroke:rgb(0%,0%,0%);stroke-opacity:1;stroke-miterlimit:10;" d="M 224.40625 150.769531 L 238.507812 151.898438 "/>
<path style="fill:none;stroke-width:1.2;stroke-linecap:butt;stroke-linejoin:miter;stroke:rgb(100%,0%,0%);stroke-opacity:1;stroke-miterlimit:10;" d="M 238.507812 151.898438 L 252.605469 153.023438 "/>
<path style="fill:none;stroke-width:1.2;stroke-linecap:butt;stroke-linejoin:miter;stroke:rgb(0%,0%,0%);stroke-opacity:1;stroke-miterlimit:10;" d="M 224.40625 150.769531 L 212.261719 125.21875 "/>
<path style="fill:none;stroke-width:1.2;stroke-linecap:butt;stroke-linejoin:miter;stroke:rgb(100%,0%,0%);stroke-opacity:1;stroke-miterlimit:10;" d="M 252.605469 153.023438 L 258.675781 165.800781 "/>
<path style="fill:none;stroke-width:1.2;stroke-linecap:butt;stroke-linejoin:miter;stroke:rgb(0%,0%,0%);stroke-opacity:1;stroke-miterlimit:10;" d="M 258.675781 165.800781 L 264.75 178.574219 "/>
<path style=" stroke:none;fill-rule:nonzero;fill:rgb(100%,100%,100%);fill-opacity:1;" d="M 248.605469 146.523438 L 257.605469 146.523438 L 257.605469 159.523438 L 248.605469 159.523438 Z M 248.605469 146.523438 "/>
<g style="fill:rgb(100%,0%,0%);fill-opacity:1;">
  <use xlink:href="#glyph0-1" x="248.605469" y="156.424805"/>
</g>
<path style="fill:none;stroke-width:1.2;stroke-linecap:butt;stroke-linejoin:miter;stroke:rgb(0%,0%,0%);stroke-opacity:1;stroke-miterlimit:10;" d="M 212.261719 125.21875 L 184.0625 122.960938 "/>
<path style="fill:none;stroke-width:1.2;stroke-linecap:butt;stroke-linejoin:miter;stroke:rgb(0%,0%,0%);stroke-opacity:1;stroke-miterlimit:10;" d="M 208.910156 131.628906 L 186.351562 129.824219 "/>
<path style="fill:none;stroke-width:1.2;stroke-linecap:butt;stroke-linejoin:miter;stroke:rgb(0%,0%,0%);stroke-opacity:1;stroke-miterlimit:10;" d="M 55.214844 137.226562 L 49.140625 124.449219 "/>
<path style="fill:none;stroke-width:1.2;stroke-linecap:butt;stroke-linejoin:miter;stroke:rgb(100%,0%,0%);stroke-opacity:1;stroke-miterlimit:10;" d="M 49.140625 124.449219 L 43.070312 111.675781 "/>
<path style="fill:none;stroke-width:1.2;stroke-linecap:butt;stroke-linejoin:miter;stroke:rgb(0%,0%,0%);stroke-opacity:1;stroke-miterlimit:10;" d="M 55.214844 137.226562 L 39.160156 160.515625 "/>
<path style="fill:none;stroke-width:1.2;stroke-linecap:butt;stroke-linejoin:miter;stroke:rgb(0%,0%,0%);stroke-opacity:1;stroke-miterlimit:10;" d="M 59.089844 143.332031 L 46.246094 161.964844 "/>
<path style=" stroke:none;fill-rule:nonzero;fill:rgb(100%,100%,100%);fill-opacity:1;" d="M 26.070312 105.175781 L 43.070312 105.175781 L 43.070312 118.175781 L 26.070312 118.175781 Z M 26.070312 105.175781 "/>
<g style="fill:rgb(100%,0%,0%);fill-opacity:1;">
  <use xlink:href="#glyph0-2" x="26.070312" y="115.077148"/>
  <use xlink:href="#glyph0-1" x="34.094727" y="115.077148"/>
</g>
<path style="fill:none;stroke-width:1.2;stroke-linecap:butt;stroke-linejoin:miter;stroke:rgb(0%,0%,0%);stroke-opacity:1;stroke-miterlimit:10;" d="M 39.160156 160.515625 L 51.304688 186.066406 "/>
<path style="fill:none;stroke-width:1.2;stroke-linecap:butt;stroke-linejoin:miter;stroke:rgb(0%,0%,0%);stroke-opacity:1;stroke-miterlimit:10;" d="M 51.304688 186.066406 L 43.277344 197.714844 "/>
<path style="fill:none;stroke-width:1.2;stroke-linecap:butt;stroke-linejoin:miter;stroke:rgb(100%,0%,0%);stroke-opacity:1;stroke-miterlimit:10;" d="M 43.277344 197.714844 L 35.25 209.359375 "/>
<path style="fill:none;stroke-width:1.2;stroke-linecap:butt;stroke-linejoin:miter;stroke:rgb(0%,0%,0%);stroke-opacity:1;stroke-miterlimit:10;" d="M 51.304688 186.066406 L 79.503906 188.324219 "/>
<path style="fill:none;stroke-width:1.2;stroke-linecap:butt;stroke-linejoin:miter;stroke:rgb(0%,0%,0%);stroke-opacity:1;stroke-miterlimit:10;" d="M 54.65625 179.65625 L 77.214844 181.464844 "/>
<path style=" stroke:none;fill-rule:nonzero;fill:rgb(100%,100%,100%);fill-opacity:1;" d="M 18.25 202.859375 L 35.25 202.859375 L 35.25 215.859375 L 18.25 215.859375 Z M 18.25 202.859375 "/>
<g style="fill:rgb(100%,0%,0%);fill-opacity:1;">
  <use xlink:href="#glyph0-2" x="18.25" y="212.760742"/>
  <use xlink:href="#glyph0-1" x="26.274414" y="212.760742"/>
</g>
</g>
</svg>

<svg xmlns="http://www.w3.org/2000/svg" xmlns:xlink="http://www.w3.org/1999/xlink" width="300pt" height="300pt" viewBox="0 0 300 300"><defs><symbol overflow="visible"><path d="M.547 1.938V-7.75h5.5v9.688zm.625-.61h4.266v-8.47H1.171zm0 0"/></symbol><symbol overflow="visible" id="a"><path d="M4.328-7.28c-.78 0-1.406.296-1.875.89-.46.585-.687 1.382-.687 2.39 0 1.012.226 1.813.687 2.406.47.586 1.094.875 1.875.875.79 0 1.414-.288 1.875-.874.457-.593.688-1.394.688-2.406 0-1.008-.23-1.805-.687-2.39-.46-.594-1.086-.89-1.875-.89zm0-.892c1.125 0 2.024.383 2.703 1.14C7.708-6.28 8.048-5.27 8.048-4c0 1.262-.34 2.273-1.016 3.03C6.353-.22 5.454.157 4.33.157S2.3-.22 1.625-.97c-.668-.75-1-1.757-1-3.03 0-1.27.332-2.28 1-3.03.676-.76 1.578-1.142 2.703-1.142zm0 0"/></symbol><symbol overflow="visible" id="b"><path d="M1.078-8.016h1.094v3.282H6.11v-3.282h1.077V0H6.11v-3.813H2.17V0H1.078zm0 0"/></symbol></defs><g><path fill="#fff" d="M0 0h300v300H0z"/><path d="M123.758 167.29l-14.102-1.13" stroke-width="1.2" stroke="#f00" stroke-miterlimit="10" fill="none"/><path d="M109.656 166.16l-14.097-1.13M139.81 143.996l-8.03 11.65" stroke-width="1.2" stroke="#000" stroke-miterlimit="10" fill="none"/><path d="M131.78 155.645l-8.022 11.644" stroke-width="1.2" stroke="#f00" stroke-miterlimit="10" fill="none"/><path d="M119.758 160.79h9v13h-9zm0 0" fill="#fff"/><use xlink:href="#a" x="119.758" y="170.69" fill="#f00"/><path d="M95.56 165.03l-12.146-25.546M88.332 165.336l-9.715-20.44M79.504 188.324L95.56 165.03M83.414 139.484l16.05-23.293M83.414 139.484l-28.2-2.257M102.473 114.762l-6.075-12.774" stroke-width="1.2" stroke="#000" stroke-miterlimit="10" fill="none"/><path d="M96.398 101.988l-6.07-12.777" stroke-width="1.2" stroke="#f00" stroke-miterlimit="10" fill="none"/><path d="M96.46 117.617l-6.073-12.773" stroke-width="1.2" stroke="#000" stroke-miterlimit="10" fill="none"/><path d="M90.387 104.844l-6.07-12.774" stroke-width="1.2" stroke="#f00" stroke-miterlimit="10" fill="none"/><path d="M99.465 116.19l28.2 2.26" stroke-width="1.2" stroke="#000" stroke-miterlimit="10" fill="none"/><path d="M78.32 84.14h9v13h-9zm0 0" fill="#fff"/><use xlink:href="#a" x="78.32" y="94.042" fill="#f00"/><path d="M127.664 118.45l12.145 25.546M122.867 123.86l9.72 20.44M139.81 143.996l28.198 2.258M168.008 146.254l12.144 25.55M175.234 145.953l9.715 20.438M184.063 122.96l-16.055 23.294M180.152 171.805l28.2 2.254M208.352 174.06l16.054-23.29M204.477 167.953l12.843-18.633M224.406 150.77l14.102 1.128" stroke-width="1.2" stroke="#000" stroke-miterlimit="10" fill="none"/><path d="M238.508 151.898l14.097 1.125" stroke-width="1.2" stroke="#f00" stroke-miterlimit="10" fill="none"/><path d="M224.406 150.77l-12.144-25.55" stroke-width="1.2" stroke="#000" stroke-miterlimit="10" fill="none"/><path d="M252.605 153.023l6.07 12.778" stroke-width="1.2" stroke="#f00" stroke-miterlimit="10" fill="none"/><path d="M258.676 165.8l6.074 12.774" stroke-width="1.2" stroke="#000" stroke-miterlimit="10" fill="none"/><path d="M248.605 146.523h9v13h-9zm0 0" fill="#fff"/><use xlink:href="#a" x="248.605" y="156.425" fill="#f00"/><path d="M212.262 125.22l-28.2-2.26M208.91 131.63l-22.558-1.806M55.215 137.227L49.14 124.45" stroke-width="1.2" stroke="#000" stroke-miterlimit="10" fill="none"/><path d="M49.14 124.45l-6.07-12.774" stroke-width="1.2" stroke="#f00" stroke-miterlimit="10" fill="none"/><path d="M55.215 137.227l-16.055 23.29M59.09 143.332l-12.844 18.633" stroke-width="1.2" stroke="#000" stroke-miterlimit="10" fill="none"/><path d="M26.07 105.176h17v13h-17zm0 0" fill="#fff"/><g fill="#f00"><use xlink:href="#b" x="26.07" y="115.077"/><use xlink:href="#a" x="34.095" y="115.077"/></g><path d="M39.16 160.516l12.145 25.55M51.305 186.066l-8.028 11.65" stroke-width="1.2" stroke="#000" stroke-miterlimit="10" fill="none"/><path d="M43.277 197.715L35.25 209.36" stroke-width="1.2" stroke="#f00" stroke-miterlimit="10" fill="none"/><path d="M51.305 186.066l28.2 2.258M54.656 179.656l22.56 1.81" stroke-width="1.2" stroke="#000" stroke-miterlimit="10" fill="none"/><path d="M18.25 202.86h17v13h-17zm0 0" fill="#fff"/><g fill="#f00"><use xlink:href="#b" x="18.25" y="212.761"/><use xlink:href="#a" x="26.274" y="212.761"/></g></g></svg>
